packages/ffe-icons/icons/open/400/sm/instant_mix.svg

<svg xmlns="http://www.w3.org/2000/svg" height="20" viewBox="0 -960 960 960" width="20"><path d="M252.211-192Q237-192 226.5-202.35 216-212.7 216-228v-204h-35.789Q165-432 154.5-442.289q-10.5-10.29-10.5-25.5Q144-483 154.387-493.5q10.387-10.5 25.742-10.5h144.516Q340-504 350.5-493.711q10.5 10.29 10.5 25.5Q361-453 350.506-442.5 340.013-432 324.5-432H288v204q0 15.3-10.289 25.65-10.29 10.35-25.5 10.35Zm0-384Q237-576 226.5-586.35 216-596.7 216-612v-120q0-15.3 10.289-25.65 10.29-10.35 25.5-10.35Q267-768 277.5-757.65 288-747.3 288-732v120q0 15.3-10.289 25.65-10.29 10.35-25.5 10.35Zm156.065 0Q393-576 382.5-586.289q-10.5-10.29-10.5-25.5Q372-627 382.35-637.5 392.7-648 408-648h36v-84q0-15.3 10.289-25.65 10.29-10.35 25.5-10.35Q495-768 505.5-757.65 516-747.3 516-732v84h35.789Q567-648 577.5-637.711q10.5 10.29 10.5 25.5Q588-597 577.666-586.5 567.332-576 552.055-576H408.276Zm71.935 384Q465-192 454.5-202.35 444-212.7 444-228v-240.404Q444-483 454.289-493.5q10.29-10.5 25.5-10.5Q495-504 505.5-493.65 516-483.3 516-468v240.404Q516-213 505.711-202.5q-10.29 10.5-25.5 10.5Zm228 0Q693-192 682.5-202.35 672-212.7 672-228v-84h-37q-15.3 0-25.65-10.289-10.35-10.29-10.35-25.5Q599-363 609.387-373.5q10.387-10.5 25.742-10.5h144.516Q795-384 805.5-373.711q10.5 10.29 10.5 25.5Q816-333 805.65-322.5 795.3-312 780-312h-36v84q0 15.3-10.289 25.65-10.29 10.35-25.5 10.35Zm0-264Q693-456 682.5-466.35 672-476.7 672-492v-240.404Q672-747 682.289-757.5q10.29-10.5 25.5-10.5Q723-768 733.5-757.65 744-747.3 744-732v240.404Q744-477 733.711-466.5q-10.29 10.5-25.5 10.5Z"/></svg>

<svg xmlns="http://www.w3.org/2000/svg" height="20" viewBox="0 -960 960 960" width="20"><path d="M252.21-192q-15.21 0-25.71-10.35T216-228v-204h-35.79q-15.21 0-25.71-10.29t-10.5-25.5q0-15.21 10.39-25.71 10.38-10.5 25.74-10.5h144.52q15.35 0 25.85 10.29 10.5 10.29 10.5 25.5t-10.49 25.71Q340.01-432 324.5-432H288v204q0 15.3-10.29 25.65Q267.42-192 252.21-192Zm0-384q-15.21 0-25.71-10.35T216-612v-120q0-15.3 10.29-25.65Q236.58-768 251.79-768t25.71 10.35Q288-747.3 288-732v120q0 15.3-10.29 25.65Q267.42-576 252.21-576Zm156.07 0q-15.28 0-25.78-10.29-10.5-10.29-10.5-25.5t10.35-25.71Q392.7-648 408-648h36v-84q0-15.3 10.29-25.65Q464.58-768 479.79-768t25.71 10.35Q516-747.3 516-732v84h35.79q15.21 0 25.71 10.29t10.5 25.5q0 15.21-10.33 25.71-10.34 10.5-25.61 10.5H408.28Zm71.93 384q-15.21 0-25.71-10.35T444-228v-240.4q0-14.6 10.29-25.1 10.29-10.5 25.5-10.5t25.71 10.35Q516-483.3 516-468v240.4q0 14.6-10.29 25.1-10.29 10.5-25.5 10.5Zm228 0q-15.21 0-25.71-10.35T672-228v-84h-37q-15.3 0-25.65-10.29Q599-332.58 599-347.79t10.39-25.71q10.38-10.5 25.74-10.5h144.52q15.35 0 25.85 10.29 10.5 10.29 10.5 25.5t-10.35 25.71Q795.3-312 780-312h-36v84q0 15.3-10.29 25.65Q723.42-192 708.21-192Zm0-264q-15.21 0-25.71-10.35T672-492v-240.4q0-14.6 10.29-25.1 10.29-10.5 25.5-10.5t25.71 10.35Q744-747.3 744-732v240.4q0 14.6-10.29 25.1-10.29 10.5-25.5 10.5Z"/></svg>
